X: 15324
T: Give Us A Drink Of Water
R: slip jig
M: 9/8
K: Gmajor
|BGG AGE DEG|B2G GFG A2c|BGG AGE DEG|cBA AGE D2c:|
Bdd dge dBG|Bdd dBG A2c|Bdd dge dBG|cBA AGE D2c|
Bdd dge dBG|Bdd dBG Aef|gfe dBd cBA|cBA BGE D3:|

